src/assets/icons/time.svg

<svg viewBox="0 0 16 22" xmlns="http://www.w3.org/2000/svg">
<path d="M15 20H14V18.333C13.9969 17.7607 13.8956 17.1933 13.7004 16.6553C13.6895 16.6259 13.678 16.5987 13.6645 16.5707C13.5026 16.1291 13.2788 15.7128 13 15.334L11.6001 13.4668C11.2117 12.9466 11.0012 12.3152 11 11.666V10.6562C11.0023 9.86113 11.3179 9.099 11.8784 8.53511L12.5356 7.87788C13.2993 7.11013 13.7898 6.11297 13.932 5.0395C13.9325 5.02559 13.9399 5.01399 13.9399 4.99995L13.9371 4.98622C13.9719 4.7733 13.9929 4.55836 14 4.34273V2H15C15.2652 2 15.5196 1.89464 15.7071 1.70711C15.8947 1.51957 16 1.26522 16 1C16 0.734784 15.8947 0.48043 15.7071 0.292893C15.5196 0.105357 15.2652 0 15 0H1.00001C0.734794 0 0.48044 0.105357 0.292903 0.292893C0.105367 0.48043 1.00136e-05 0.734784 1.00136e-05 1C1.00136e-05 1.26522 0.105367 1.51957 0.292903 1.70711C0.48044 1.89464 0.734794 2 1.00001 2H2.00001V4.34273C2.00711 4.55836 2.02811 4.7733 2.06288 4.98622L2.06006 5C2.06006 5.014 2.0675 5.02564 2.06806 5.03955C2.21022 6.11302 2.70075 7.11017 3.46436 7.87793L4.12159 8.53516C4.68208 9.09904 4.9977 9.86115 5 10.6562V11.666C4.9987 12.3151 4.78846 12.9465 4.40039 13.4668L2.99951 15.3339C2.72075 15.7129 2.49708 16.1294 2.33514 16.5711C2.32184 16.5988 2.31042 16.6257 2.29962 16.6548C2.10448 17.1929 2.00313 17.7606 2 18.333V20H1C0.734784 20 0.48043 20.1054 0.292893 20.2929C0.105357 20.4804 0 20.7348 0 21C0 21.2652 0.105357 21.5196 0.292893 21.7071C0.48043 21.8946 0.734784 22 1 22H15C15.2652 22 15.5196 21.8946 15.7071 21.7071C15.8946 21.5196 16 21.2652 16 21C16 20.7348 15.8946 20.4804 15.7071 20.2929C15.5196 20.1054 15.2652 20 15 20ZM4 4V2H12V4H4ZM4.87842 6.46387C4.73751 6.32231 4.61124 6.1669 4.50153 6H11.4985C11.3888 6.1669 11.2625 6.32231 11.1216 6.46387L10.4643 7.1211C9.68432 7.89655 9.18414 8.90926 9.04248 10H6.95748C6.81585 8.90923 6.31568 7.89648 5.53564 7.121L4.87842 6.46387ZM6.00049 14.666C6.57911 13.8907 6.92221 12.9651 6.98877 12H9.01123C9.07774 12.9652 9.42103 13.8908 10 14.666L11.0001 16H4.99963L6.00049 14.666ZM12 20H4V18.333C4.00278 18.2216 4.01187 18.1104 4.02722 18H11.9728C11.9881 18.1104 11.9972 18.2216 12 18.333V20Z"/>
</svg>

<svg viewBox="0 0 16 22" xmlns="http://www.w3.org/2000/svg">
  <path d="M15 20h-1v-1.667a4.998 4.998 0 0 0-.3-1.678.958.958 0 0 0-.035-.084A4.976 4.976 0 0 0 13 15.334l-1.4-1.867a3.02 3.02 0 0 1-.6-1.801v-1.01a3.021 3.021 0 0 1 .878-2.12l.658-.658a4.946 4.946 0 0 0 1.396-2.838c0-.014.008-.026.008-.04l-.003-.014c.035-.213.056-.428.063-.643V2h1a1 1 0 1 0 0-2H1a1 1 0 0 0 0 2h1v2.343c.007.215.028.43.063.643L2.06 5c0 .014.007.026.008.04a4.946 4.946 0 0 0 1.396 2.838l.658.657c.56.564.876 1.326.878 2.121v1.01a3.022 3.022 0 0 1-.6 1.8L3 15.335a4.983 4.983 0 0 0-.665 1.237.968.968 0 0 0-.035.084 5.003 5.003 0 0 0-.3 1.678V20H1a1 1 0 0 0 0 2h14a1 1 0 0 0 0-2zM4 4V2h8v2H4zm.878 2.464A2.97 2.97 0 0 1 4.502 6h6.997a2.97 2.97 0 0 1-.377.464l-.658.657A4.96 4.96 0 0 0 9.042 10H6.957a4.96 4.96 0 0 0-1.421-2.879l-.658-.657zM6 14.666c.58-.775.922-1.7.989-2.666H9.01c.067.965.41 1.89.989 2.666L11 16H5l1-1.334zM12 20H4v-1.667c.003-.111.012-.223.027-.333h7.946c.015.11.024.222.027.333V20z"/>
</svg>
